!!!!SEGMENT: pl-wnifc--6432-n--005_nowakowski-jozef--mazur-no-5.krn
!!!cenid: 18xx:3928
!!!COM: Nowakowski, Józef
!!!COM-rismID: pe175316
!!!CDT: 1880/09/16-1865/08/27
!!!CNT: Polish
!!!OTL: Mazur No. 5
!!!PDT: 1825
!!!AGN:
!!!SMS-siglum: PL-Wnifc
!!!SMS-shelfmark: 6432/n
!!!SMS-shelfwork: 005 W
!!!SMS-variant:
!!!SMS-altvar:
!!!NIFC-rismSourceID: 1001134736
!!!NIFC-islandoraID: nifc:212700
!!!URL-pdf-islandora: https://repozytorium.nifc.pl/islandora/object/nifc%3A212700/datastream/PDF/view
!!!URL-scan: https://polish.musicsources.pl/pl/lokalizacje/galeria/druki-muzyczne/16851 @EN{Scan on Polish Music Sources Website} @PL{Skany w portalu Dziedzictwo Muzyki Polskiej w otwartym dostępie}
!!!ONB-nifc: UWAGA: w źródle 5 Mazurów (001-005), 4 Anglezy (006-009), 2 Walce (010-011) i Fantaisie Valse (012).
!!!AIN: 2 piano
!!!key: F
**kern	**kern
*part2	*part1
*staff2	*staff1
*>[A,A,B,B]	*>[A,A,B,B]
*>A	*>A
*I"Piano-forté.	*I"Piano-forté.
*I'	*I'
*Ipiano	*Ipiano
*ICklav	*ICklav
*clefF4	*clefG2
*k[b-]	*k[b-]
*F:	*F:
*M3/8	*M3/8
=1	=1
8FL 8FF\	16cc\LL
.	16ff\JJ
8c 8A 8F\	8aa'\L
8cJ 8A 8F\	8cccJ 8aa'\
=2	=2
*rep	*
8FL 8FF\	16bbnLL 16gg#X\
.	16cccJJ 16aa\
8c 8A 8F\	8dddL 8bb-X\
8cJ 8A 8F\	8cccJ 8aa\
*Xrep	*
=3	=3
*rep	*
8FL 8FF\	(16fffLL 16aa\
.	16eee 16ccc\
8c 8A 8F\	16ddd 16bb-\
.	16ccc 16aa\
8cJ 8A 8F\	16bb- 16gg\
.	16aaJJ 16ff\)
*Xrep	*
=4	=4
8C/	16.cccLL 16.aa\
.	32bb-JJk 32gg\
4e 4c 4G^\	4gg 4ee^\
=5	=5
8C\L	16.cc\LL
.	32ee\JJk
8c 8B- 8G\	8gg\L
8cJ 8B- 8G\	8bb-J 8gg\
=6	=6
8C\L	16aaLL 16ff#X\
.	16bb-JJ 16gg\
8c 8B- 8G\	8cccL 8aa\
8cJ 8B- 8G\	8bb-J 8gg\
=7	=7
*rep	*
!	!LO:TUP:a
8C\L	24bb-\LL
.	24ccc\
.	24ddd\JJ
8c 8B- 8G\	8cc\L
8cJ 8B- 8G\	16ee\L
.	16gg\JJ
*Xrep	*
=8	=8
*rep	*
8c 8A 8F\	16.bb-\LL
.	32aa\JJk
4FF/	4ff\
*Xrep	*
=9:|!|:	=9:|!|:
*>B	*>B
!	!LO:TUP:a
8GL 8GG\	24ff\LL
.	24gg\
.	24aa\JJ
8d 8B- 8G\	8g/L
8dJ 8B- 8G\	16a/L
.	16b-/JJ
=10	=10
8c 8C\	16.cc\LL
.	32dd\JJk
4e 4c 4G^\	4ee^\
=11	=11
!LO:TX:t=P:problem=mixed beam	!LO:TUP:a
8EL 8EE/	24gg#X\LL
.	24aa\
!	!LO:SIC:v:s=24bb\J
.	24bb-\JJ
8d 8B- 8E\	8ee\L
!	!LO:SIC:v:s=16ff#\L
8dJ 8B- 8E\	16ff\L
.	16gg#\JJ
=12	=12
8A 8AA\	16.aa\LL
.	32ccc\JJk
4e 4c 4A^\	4eee^\
=13	=13
!	!LO:TUP:a
8GL 8GG\	24ddd\LL
.	24eee\
.	24fff\JJ
8f 8d 8G\	8gg\L
8fJ 8d 8G\	16aa\L
.	16bbn\JJ
=14	=14
8c 8C\	16.ccc\LL
.	32ee\JJk
4e 4c 4G^\	8.aa\L
.	16gg\Jk
=15	=15
!	!LO:TUP:a
8GL 8GG\	24dd\LL
.	24ee\
.	24ff\JJ
8f 8d 8G\	8g/L
8fJ 8d 8G\	16a/L
.	16bn/JJ
=16	=16
!LO:TX:t=P:problem=mixed beam	!
8eL 8c\	16cc\LL
.	16ee\JJ
8C/J	4cc\
8r	.
==:|!	==:|!
*-	*-
!!!system-decoration: {(*)}
!!!ENC: Berenika Jozajtis
!!!END: 2022-07-27
!!!ENC: Andrzej Kubiczek
!!!END: 2022-08-24
